X: 2247
T: IRISH REEL
%R: reel
B: James Kerr "Merry Melodies" v.2 p.27 #247
Z: 2016 John Chambers <jc:trillian.mit.edu>
M: C
L: 1/8
K: D
(udB) |\
AFDE FEFG | AFED d2(cB) |\
AFDE FEFG | AB=cA G2 :|\
(uFG) |\
(Ad)dB (AG)FG | Acde f2(FG) |
(Ad)dB (AG)FG | AB=cA G2(FG) |\
(Ad)dB (AG)FG | Acde f2(ef) |\
gefd ecdB | AB=cA G2 |]
